svg/business/card_refund_line.svg

<?xml version="1.0" encoding="UTF-8"?>
<svg width="24px" height="24px" viewBox="0 0 24 24" version="1.1" xmlns="http://www.w3.org/2000/svg" xmlns:xlink="http://www.w3.org/1999/xlink">
    <title>card_refund_line</title>
    <g id="Icon" stroke="none" stroke-width="1" fill="none" fill-rule="evenodd">
        <g id="Business" transform="translate(-240.000000, -480.000000)">
            <g id="card_refund_line" transform="translate(240.000000, 480.000000)">
                <path d="M24,0 L24,24 L0,24 L0,0 L24,0 Z M12.5935,23.2578 L12.5819,23.2595 L12.5109,23.295 L12.4919,23.2987 L12.4767,23.295 L12.4057,23.2595 C12.3958,23.2564 12.387,23.259 12.3821,23.2649 L12.378,23.2758 L12.3609,23.7031 L12.3659,23.7235 L12.3769,23.7357 L12.4805,23.8097 L12.4953,23.8136 L12.5071,23.8097 L12.6107,23.7357 L12.6233,23.7197 L12.6267,23.7031 L12.6096,23.2758 C12.6076,23.2657 12.601,23.2593 12.5935,23.2578 Z M12.8584,23.1453 L12.8445,23.1473 L12.6598,23.2397 L12.6499,23.2499 L12.6472,23.2611 L12.6651,23.6906 L12.6699,23.7034 L12.6784,23.7105 L12.8793,23.8032 C12.8914,23.8069 12.9022,23.803 12.9078,23.7952 L12.9118,23.7812 L12.8777,23.1665 C12.8753,23.1546 12.8674,23.147 12.8584,23.1453 Z M12.143,23.1473 C12.1332,23.1424 12.1222,23.1453 12.1156,23.1526 L12.1099,23.1665 L12.0758,23.7812 C12.0751,23.7927 12.0828,23.8019 12.0926,23.8046 L12.1083,23.8032 L12.3092,23.7105 L12.3186,23.7024 L12.3225,23.6906 L12.3404,23.2611 L12.3372,23.2485 L12.3278,23.2397 L12.143,23.1473 Z" id="MingCute" fill-rule="nonzero"></path>
                <path d="M19,4 C20.597725,4 21.903664,5.24892392 21.9949075,6.82372764 L22,7 L22,17 C22,18.597725 20.7511226,19.903664 19.1762773,19.9949075 L19,20 L5,20 C3.40232321,20 2.09633941,18.7511226 2.00509271,17.1762773 L2,17 L2,7 C2,5.40232321 3.24892392,4.09633941 4.82372764,4.00509271 L5,4 L19,4 Z M20,10 L4,10 L4,17 C4,17.51285 4.38604429,17.9355092 4.88337975,17.9932725 L5,18 L19,18 C19.51285,18 19.9355092,17.613973 19.9932725,17.1166239 L20,17 L20,10 Z M9.29271,11.4645 C9.68323,11.0739 10.3164,11.0739 10.7069,11.4645 C11.0673615,11.8249615 11.0950893,12.3922207 10.7900834,12.7844973 L10.7069,12.8787 L10.5856,13 L15,13 C15.5523,13 16,13.4477 16,14 C16,14.51285 15.613973,14.9355092 15.1166239,14.9932725 L15,15 L10.5856,15 L10.7069,15.1213 C11.0974,15.5118 11.0974,16.145 10.7069,16.5355 C10.3464385,16.8960538 9.77920485,16.9237888 9.3869165,16.6187047 L9.29271,16.5355 L7.46428,14.7071 C7.1038,14.3466385 7.07607077,13.7793793 7.38109231,13.3871027 L7.46428,13.2929 L9.29271,11.4645 Z M19,6 L5,6 C4.44772,6 4,6.44772 4,7 L4,8 L20,8 L20,7 C20,6.44772 19.5523,6 19,6 Z" id="形状" fill="#09244B"></path>
            </g>
        </g>
    </g>
</svg>

<svg xmlns="http://www.w3.org/2000/svg" width="24" height="24"><g fill="none" fill-rule="evenodd"><path d="M24 0v24H0V0zM12.594 23.258l-.012.002-.071.035-.02.004-.014-.004-.071-.036c-.01-.003-.019 0-.024.006l-.004.01-.017.428.005.02.01.013.104.074.015.004.012-.004.104-.074.012-.016.004-.017-.017-.427c-.002-.01-.009-.017-.016-.018m.264-.113-.014.002-.184.093-.01.01-.003.011.018.43.005.012.008.008.201.092c.012.004.023 0 .029-.008l.004-.014-.034-.614c-.003-.012-.01-.02-.02-.022m-.715.002a.023.023 0 0 0-.027.006l-.006.014-.034.614c0 .012.007.02.017.024l.015-.002.201-.093.01-.008.003-.011.018-.43-.003-.012-.01-.01z"/><path fill="#09244B" d="M19 4a3 3 0 0 1 2.995 2.824L22 7v10a3 3 0 0 1-2.824 2.995L19 20H5a3 3 0 0 1-2.995-2.824L2 17V7a3 3 0 0 1 2.824-2.995L5 4zm1 6H4v7a1 1 0 0 0 .883.993L5 18h14a1 1 0 0 0 .993-.883L20 17zM9.293 11.464a1 1 0 0 1 1.497 1.32l-.083.095-.121.121H15a1 1 0 0 1 .117 1.993L15 15h-4.414l.12.121a1 1 0 0 1-1.32 1.498l-.093-.084-1.829-1.828a1 1 0 0 1-.083-1.32l.083-.094zM19 6H5a1 1 0 0 0-1 1v1h16V7a1 1 0 0 0-1-1"/></g></svg>
